public/logo.svg

<svg version="1.1" id="Layer_1" xmlns="http://www.w3.org/2000/svg" xmlns:xlink="http://www.w3.org/1999/xlink" x="0px" y="0px"
	 width="100%" viewBox="0 0 423 423" enable-background="new 0 0 423 423" xml:space="preserve">
<path fill="#FE705A" opacity="1.000000" stroke="none" 
	d="
M1.000000,376.000000 
	C1.000000,284.979095 1.000000,193.958206 1.330045,102.283066 
	C7.786716,75.776901 20.627317,53.996605 40.645527,36.385456 
	C59.327175,19.950155 81.923042,12.797999 105.642288,7.987788 
	C116.135674,5.859753 126.549858,3.341247 137.000000,0.999999 
	C195.687561,1.000000 254.375122,1.000000 313.787292,1.260250 
	C315.774017,1.937261 317.024078,2.395529 318.299927,2.764808 
	C370.370514,17.836134 403.818420,51.524422 418.989105,103.480446 
	C420.691559,109.310905 422.331238,115.159706 424.000000,121.000000 
	C424.000000,169.020889 424.000000,217.041794 423.653229,265.713104 
	C422.532654,270.784119 421.639038,275.187592 421.004700,279.628113 
	C417.171692,306.459991 407.988251,331.214813 391.674408,352.971130 
	C362.728729,391.573395 323.269165,412.634186 276.427490,421.066254 
	C270.630127,422.109833 264.809723,423.025208 259.000000,424.000000 
	C191.979111,424.000000 124.958214,424.000000 57.180969,423.742310 
	C49.952759,421.517151 43.156818,420.253387 37.069908,417.450073 
	C18.952204,409.106079 7.203605,394.882874 1.000000,376.000000 
M37.161453,302.647461 
	C35.693241,311.625519 33.014145,320.600677 32.992977,329.582153 
	C32.938259,352.798004 48.103176,367.491302 71.291931,367.814484 
	C98.519989,368.193970 120.077019,355.898926 137.989853,336.613800 
	C165.164474,307.357269 180.134460,271.872070 188.837280,233.458633 
	C191.003342,223.897781 192.036865,214.085281 193.814423,204.429596 
	C194.889206,198.591324 198.704300,195.872299 204.250458,196.485092 
	C204.822784,201.588333 205.118622,206.749939 206.018341,211.804062 
	C209.575043,231.783951 221.717758,244.596115 239.948669,247.668060 
	C250.139709,249.385284 260.215698,248.431763 270.101074,245.555923 
	C291.632843,239.291931 309.867920,227.163437 327.115906,213.313675 
	C330.102631,210.915390 332.873657,208.232193 335.967377,205.988190 
	C338.993073,203.793518 342.298615,205.280624 342.330597,208.958755 
	C342.387177,215.468262 341.559784,221.257660 336.099030,226.501236 
	C323.872772,238.241196 312.106934,250.552185 301.130615,263.461395 
	C296.093811,269.385132 292.586792,276.971558 289.778137,284.334991 
	C286.375946,293.254669 289.814240,301.631927 297.117310,306.148163 
	C306.827209,312.152863 318.749878,311.323517 326.385132,302.878357 
	C331.091248,297.673065 335.005585,291.405975 337.924255,284.999969 
	C344.739594,270.041382 347.812714,253.953217 349.950226,237.743408 
	C350.940552,230.233398 353.785645,224.200912 359.971527,219.561371 
	C368.631378,213.066315 376.978760,206.156021 385.512482,199.490814 
	C388.391785,197.241959 390.655579,194.701660 388.125366,191.118286 
	C385.386292,187.239105 382.081146,188.703857 379.037323,191.015778 
	C373.598450,195.146851 368.297821,199.474045 362.689819,203.359039 
	C361.162689,204.416977 358.326813,205.035004 356.851898,204.309387 
	C355.392395,203.591354 354.265717,200.974075 354.107025,199.095764 
	C353.800934,195.472015 354.288574,191.782318 354.429932,188.119308 
	C354.549469,185.021011 354.543671,181.373062 350.860931,180.888535 
	C348.605621,180.591797 345.592529,182.072556 343.696930,183.674637 
	C332.005188,193.555756 321.009521,204.319855 308.871124,213.598145 
	C293.437012,225.395569 276.574921,234.813858 256.827362,237.646774 
	C234.529663,240.845520 220.122223,230.601288 216.254196,208.636490 
	C215.764832,205.857697 215.808884,202.989044 215.428116,200.186157 
	C214.771637,195.353668 214.754822,191.332626 221.310349,190.558533 
	C222.790588,190.383743 225.093323,186.884903 224.849915,185.236237 
	C224.595871,183.515808 221.813782,182.053741 219.947556,180.749680 
	C219.309799,180.304031 218.098663,180.678955 216.734787,180.678955 
	C217.009171,178.722153 217.134949,177.084976 217.477066,175.494308 
	C224.625641,142.256516 240.736038,113.988068 265.359802,90.699066 
	C277.792633,78.940186 291.699402,69.106171 308.505127,64.494026 
	C326.793793,59.474915 339.663391,67.932472 343.071350,86.640602 
	C345.632080,100.697777 343.187714,114.168427 338.260162,127.290825 
	C329.484924,150.659927 314.101501,168.844498 293.877930,183.149811 
	C290.785980,185.336945 288.197296,187.989120 290.916870,191.809723 
	C293.657745,195.660248 296.958923,193.975510 300.049255,191.785355 
	C319.320740,178.127380 334.587128,160.985886 344.645599,139.542969 
	C353.232483,121.237198 357.958710,102.165924 353.091339,81.876312 
	C347.751312,59.616234 330.694214,49.028324 308.394867,53.741024 
	C292.804230,57.035912 279.536682,65.049591 267.542206,74.952049 
	C234.160904,102.511177 213.389725,137.653030 206.008286,180.452515 
	C205.341705,184.317566 203.307220,185.096252 200.088028,184.418640 
	C195.839691,183.524429 194.868668,180.274765 194.690170,176.512344 
	C194.025192,162.495956 192.518677,148.618820 187.683060,135.312531 
	C183.314621,123.291847 176.841904,112.863342 165.672485,105.901764 
	C159.506897,102.058937 153.010864,101.283089 146.701523,104.759056 
	C141.356400,107.703796 136.320633,111.335869 131.547913,115.162598 
	C125.316193,120.159149 119.666321,125.882500 113.423744,130.864120 
	C105.761703,136.978470 104.097664,136.537369 96.684517,130.141815 
	C95.267082,128.918945 91.601830,128.524155 90.240501,129.505234 
	C88.832207,130.520142 88.840752,133.656479 88.505898,135.905991 
	C88.411568,136.539703 89.260521,137.336670 89.724045,138.027054 
	C95.267517,146.283875 104.941780,148.918274 113.811310,143.095795 
	C121.962692,137.744720 129.044846,130.778854 136.697296,124.648300 
	C140.969925,121.225395 145.301285,117.836243 149.872314,114.837532 
	C153.737900,112.301605 157.667343,112.923691 161.490555,115.659615 
	C168.973190,121.014252 173.598785,128.397186 176.912033,136.722244 
	C182.158203,149.904083 183.894669,163.727463 184.136292,177.806824 
	C184.330627,189.130951 183.497833,190.389771 172.925522,194.136154 
	C143.260574,204.648209 115.029144,217.981476 89.848656,237.107346 
	C67.096344,254.388885 47.960842,274.692932 37.161453,302.647461 
z"/>
<path fill="#FFFEFE" opacity="1.000000" stroke="none" 
	d="
M259.468658,424.000000 
	C264.809723,423.025208 270.630127,422.109833 276.427490,421.066254 
	C323.269165,412.634186 362.728729,391.573395 391.674408,352.971130 
	C407.988251,331.214813 417.171692,306.459991 421.004700,279.628113 
	C421.639038,275.187592 422.532654,270.784119 423.653229,266.181763 
	C424.000000,318.595245 424.000000,371.190491 424.000000,424.000000 
	C369.312622,424.000000 314.624969,424.000000 259.468658,424.000000 
z"/>
<path fill="#FFFEFE" opacity="1.000000" stroke="none" 
	d="
M424.000000,120.531342 
	C422.331238,115.159706 420.691559,109.310905 418.989105,103.480446 
	C403.818420,51.524422 370.370514,17.836134 318.299927,2.764808 
	C317.024078,2.395529 315.774017,1.937261 314.255981,1.260250 
	C350.596802,1.000000 387.193604,1.000000 424.000000,1.000000 
	C424.000000,40.687317 424.000000,80.375000 424.000000,120.531342 
z"/>
<path fill="#FFFEFE" opacity="1.000000" stroke="none" 
	d="
M136.531342,0.999999 
	C126.549858,3.341247 116.135674,5.859753 105.642288,7.987788 
	C81.923042,12.797999 59.327175,19.950155 40.645527,36.385456 
	C20.627317,53.996605 7.786716,75.776901 1.330045,101.814407 
	C1.000000,68.395584 1.000000,34.791164 1.000000,1.000000 
	C46.020721,1.000000 91.041702,1.000000 136.531342,0.999999 
z"/>
<path fill="#FFFEFD" opacity="1.000000" stroke="none" 
	d="
M1.000000,376.468658 
	C7.203605,394.882874 18.952204,409.106079 37.069908,417.450073 
	C43.156818,420.253387 49.952759,421.517151 56.712311,423.742310 
	C38.412205,424.000000 19.824411,424.000000 1.000000,424.000000 
	C1.000000,408.313232 1.000000,392.625275 1.000000,376.468658 
z"/>
<path fill="#FFFCFB" opacity="1.000000" stroke="none" 
	d="
M37.308529,302.284729 
	C47.960842,274.692932 67.096344,254.388885 89.848656,237.107346 
	C115.029144,217.981476 143.260574,204.648209 172.925522,194.136154 
	C183.497833,190.389771 184.330627,189.130951 184.136292,177.806824 
	C183.894669,163.727463 182.158203,149.904083 176.912033,136.722244 
	C173.598785,128.397186 168.973190,121.014252 161.490555,115.659615 
	C157.667343,112.923691 153.737900,112.301605 149.872314,114.837532 
	C145.301285,117.836243 140.969925,121.225395 136.697296,124.648300 
	C129.044846,130.778854 121.962692,137.744720 113.811310,143.095795 
	C104.941780,148.918274 95.267517,146.283875 89.724045,138.027054 
	C89.260521,137.336670 88.411568,136.539703 88.505898,135.905991 
	C88.840752,133.656479 88.832207,130.520142 90.240501,129.505234 
	C91.601830,128.524155 95.267082,128.918945 96.684517,130.141815 
	C104.097664,136.537369 105.761703,136.978470 113.423744,130.864120 
	C119.666321,125.882500 125.316193,120.159149 131.547913,115.162598 
	C136.320633,111.335869 141.356400,107.703796 146.701523,104.759056 
	C153.010864,101.283089 159.506897,102.058937 165.672485,105.901764 
	C176.841904,112.863342 183.314621,123.291847 187.683060,135.312531 
	C192.518677,148.618820 194.025192,162.495956 194.690170,176.512344 
	C194.868668,180.274765 195.839691,183.524429 200.088028,184.418640 
	C203.307220,185.096252 205.341705,184.317566 206.008286,180.452515 
	C213.389725,137.653030 234.160904,102.511177 267.542206,74.952049 
	C279.536682,65.049591 292.804230,57.035912 308.394867,53.741024 
	C330.694214,49.028324 347.751312,59.616234 353.091339,81.876312 
	C357.958710,102.165924 353.232483,121.237198 344.645599,139.542969 
	C334.587128,160.985886 319.320740,178.127380 300.049255,191.785355 
	C296.958923,193.975510 293.657745,195.660248 290.916870,191.809723 
	C288.197296,187.989120 290.785980,185.336945 293.877930,183.149811 
	C314.101501,168.844498 329.484924,150.659927 338.260162,127.290825 
	C343.187714,114.168427 345.632080,100.697777 343.071350,86.640602 
	C339.663391,67.932472 326.793793,59.474915 308.505127,64.494026 
	C291.699402,69.106171 277.792633,78.940186 265.359802,90.699066 
	C240.736038,113.988068 224.625641,142.256516 217.477066,175.494308 
	C217.134949,177.084976 217.009171,178.722153 216.734787,180.678955 
	C218.098663,180.678955 219.309799,180.304031 219.947556,180.749680 
	C221.813782,182.053741 224.595871,183.515808 224.849915,185.236237 
	C225.093323,186.884903 222.790588,190.383743 221.310349,190.558533 
	C214.754822,191.332626 214.771637,195.353668 215.428116,200.186157 
	C215.808884,202.989044 215.764832,205.857697 216.254196,208.636490 
	C220.122223,230.601288 234.529663,240.845520 256.827362,237.646774 
	C276.574921,234.813858 293.437012,225.395569 308.871124,213.598145 
	C321.009521,204.319855 332.005188,193.555756 343.696930,183.674637 
	C345.592529,182.072556 348.605621,180.591797 350.860931,180.888535 
	C354.543671,181.373062 354.549469,185.021011 354.429932,188.119308 
	C354.288574,191.782318 353.800934,195.472015 354.107025,199.095764 
	C354.265717,200.974075 355.392395,203.591354 356.851898,204.309387 
	C358.326813,205.035004 361.162689,204.416977 362.689819,203.359039 
	C368.297821,199.474045 373.598450,195.146851 379.037323,191.015778 
	C382.081146,188.703857 385.386292,187.239105 388.125366,191.118286 
	C390.655579,194.701660 388.391785,197.241959 385.512482,199.490814 
	C376.978760,206.156021 368.631378,213.066315 359.971527,219.561371 
	C353.785645,224.200912 350.940552,230.233398 349.950226,237.743408 
	C347.812714,253.953217 344.739594,270.041382 337.924255,284.999969 
	C335.005585,291.405975 331.091248,297.673065 326.385132,302.878357 
	C318.749878,311.323517 306.827209,312.152863 297.117310,306.148163 
	C289.814240,301.631927 286.375946,293.254669 289.778137,284.334991 
	C292.586792,276.971558 296.093811,269.385132 301.130615,263.461395 
	C312.106934,250.552185 323.872772,238.241196 336.099030,226.501236 
	C341.559784,221.257660 342.387177,215.468262 342.330597,208.958755 
	C342.298615,205.280624 338.993073,203.793518 335.967377,205.988190 
	C332.873657,208.232193 330.102631,210.915390 327.115906,213.313675 
	C309.867920,227.163437 291.632843,239.291931 270.101074,245.555923 
	C260.215698,248.431763 250.139709,249.385284 239.948669,247.668060 
	C221.717758,244.596115 209.575043,231.783951 206.018341,211.804062 
	C205.118622,206.749939 204.822784,201.588333 204.250458,196.485092 
	C198.704300,195.872299 194.889206,198.591324 193.814423,204.429596 
	C192.036865,214.085281 191.003342,223.897781 188.837280,233.458633 
	C180.134460,271.872070 165.164474,307.357269 137.989853,336.613800 
	C120.077019,355.898926 98.519989,368.193970 71.291931,367.814484 
	C48.103176,367.491302 32.938259,352.798004 32.992977,329.582153 
	C33.014145,320.600677 35.693241,311.625519 37.308529,302.284729 
M62.985493,278.521942 
	C60.548103,282.098145 57.962368,285.583221 55.700138,289.266968 
	C47.807320,302.119507 42.530045,315.802246 43.216377,331.204681 
	C43.839317,345.184479 53.830276,355.976135 67.085915,356.937073 
	C76.652199,357.630585 86.035316,356.613708 95.126396,353.349548 
	C116.474602,345.684479 131.620941,330.476410 144.138458,312.388733 
	C164.803635,282.527771 176.341995,249.078857 181.831955,213.392670 
	C182.799438,207.103714 178.383057,203.451569 172.334106,205.706070 
	C164.542465,208.610107 156.780029,211.649902 149.212479,215.087891 
	C116.253235,230.061508 86.207146,249.070023 62.985493,278.521942 
M328.504974,280.876160 
	C331.040070,272.098053 333.803986,263.375031 335.940125,254.500870 
	C336.438538,252.430466 335.527344,249.002640 333.990997,247.688644 
	C331.400269,245.472931 328.720428,247.519165 326.738068,249.796112 
	C320.400269,257.075714 313.769287,264.131317 307.883575,271.761017 
	C304.586182,276.035461 301.967316,281.058929 300.063080,286.128235 
	C297.387817,293.250000 300.898438,298.142334 308.482300,299.108154 
	C313.136200,299.700775 317.291351,298.363403 320.040436,294.638580 
	C323.078186,290.522675 325.487122,285.942719 328.504974,280.876160 
z"/>
<path fill="#FE715B" opacity="1.000000" stroke="none" 
	d="
M63.202805,278.237305 
	C86.207146,249.070023 116.253235,230.061508 149.212479,215.087891 
	C156.780029,211.649902 164.542465,208.610107 172.334106,205.706070 
	C178.383057,203.451569 182.799438,207.103714 181.831955,213.392670 
	C176.341995,249.078857 164.803635,282.527771 144.138458,312.388733 
	C131.620941,330.476410 116.474602,345.684479 95.126396,353.349548 
	C86.035316,356.613708 76.652199,357.630585 67.085915,356.937073 
	C53.830276,355.976135 43.839317,345.184479 43.216377,331.204681 
	C42.530045,315.802246 47.807320,302.119507 55.700138,289.266968 
	C57.962368,285.583221 60.548103,282.098145 63.202805,278.237305 
z"/>
<path fill="#FE725C" opacity="1.000000" stroke="none" 
	d="
M328.337463,281.220520 
	C325.487122,285.942719 323.078186,290.522675 320.040436,294.638580 
	C317.291351,298.363403 313.136200,299.700775 308.482300,299.108154 
	C300.898438,298.142334 297.387817,293.250000 300.063080,286.128235 
	C301.967316,281.058929 304.586182,276.035461 307.883575,271.761017 
	C313.769287,264.131317 320.400269,257.075714 326.738068,249.796112 
	C328.720428,247.519165 331.400269,245.472931 333.990997,247.688644 
	C335.527344,249.002640 336.438538,252.430466 335.940125,254.500870 
	C333.803986,263.375031 331.040070,272.098053 328.337463,281.220520 
z"/>
</svg>

<svg width="423" height="423" xmlns="http://www.w3.org/2000/svg" xmlns:svg="http://www.w3.org/2000/svg" enable-background="new 0 0 423 423" version="1.1" xml:space="preserve">

 <g class="layer">
  <title>Layer 1</title>
  <path d="m1,376c0,-91.02 0,-182.04 0.33,-273.72c6.46,-26.5 19.3,-48.28 39.32,-65.89c18.68,-16.44 41.27,-23.59 64.99,-28.4c10.5,-2.13 20.91,-4.65 31.36,-6.99c58.69,0 117.38,0 176.79,0.26c1.98,0.68 3.23,1.14 4.51,1.5c52.07,15.08 85.52,48.76 100.69,100.72c1.7,5.83 3.34,11.68 5.01,17.52c0,48.02 0,96.04 -0.35,144.71c-1.12,5.07 -2.01,9.48 -2.65,13.92c-3.83,26.83 -13.01,51.58 -29.33,73.34c-28.94,38.6 -68.4,59.66 -115.24,68.1c-5.8,1.04 -11.62,1.96 -17.43,2.93c-67.02,0 -134.04,0 -201.82,-0.26c-7.23,-2.22 -14.02,-3.49 -20.11,-6.29c-18.12,-8.34 -29.87,-22.57 -36.07,-41.45m36.16,-73.35c-1.47,8.98 -4.15,17.95 -4.17,26.93c-0.05,23.22 15.11,37.91 38.3,38.23c27.23,0.38 48.79,-11.91 66.7,-31.2c27.17,-29.25 42.14,-64.74 50.85,-103.15c2.16,-9.56 3.2,-19.37 4.97,-29.03c1.08,-5.84 4.89,-8.56 10.44,-7.94c0.57,5.1 0.87,10.26 1.77,15.31c3.56,19.98 15.7,32.8 33.93,35.87c10.19,1.72 20.27,0.76 30.15,-2.11c21.53,-6.27 39.77,-18.4 57.02,-32.25c2.98,-2.39 5.75,-5.08 8.85,-7.32c3.02,-2.2 6.33,-0.71 6.36,2.97c0.06,6.51 -0.77,12.3 -6.23,17.54c-12.23,11.74 -23.99,24.05 -34.97,36.96c-5.04,5.93 -8.54,13.51 -11.35,20.87c-3.4,8.92 0.03,17.3 7.34,21.82c9.71,6 21.63,5.17 29.27,-3.27c4.7,-5.21 8.62,-11.47 11.53,-17.88c6.82,-14.96 9.89,-31.05 12.03,-47.26c0.99,-7.51 3.84,-13.54 10.02,-18.18c8.66,-6.49 17.01,-13.4 25.54,-20.07c2.88,-2.25 5.15,-4.79 2.62,-8.37c-2.74,-3.88 -6.05,-2.42 -9.09,-0.1c-5.44,4.13 -10.74,8.45 -16.35,12.34c-1.53,1.06 -4.36,1.68 -5.84,0.95c-1.46,-0.72 -2.58,-3.34 -2.74,-5.21c-0.31,-3.63 0.18,-7.32 0.32,-10.98c0.12,-3.1 0.11,-6.75 -3.57,-7.23c-2.25,-0.3 -5.27,1.18 -7.16,2.78c-11.69,9.89 -22.69,20.65 -34.83,29.93c-15.43,11.8 -32.3,21.21 -52.04,24.05c-22.3,3.2 -36.71,-7.05 -40.58,-29.01c-0.49,-2.78 -0.44,-5.65 -0.82,-8.45c-0.66,-4.84 -0.68,-8.86 5.88,-9.63c1.48,-0.18 3.78,-3.68 3.54,-5.32c-0.25,-1.72 -3.04,-3.19 -4.9,-4.49c-0.64,-0.45 -1.85,-0.07 -3.22,-0.07c0.28,-1.96 0.4,-3.6 0.75,-5.19c7.15,-33.23 23.26,-61.5 47.88,-84.79c12.43,-11.76 26.34,-21.59 43.15,-26.21c18.28,-5.02 31.15,3.44 34.56,22.15c2.56,14.06 0.12,27.53 -4.81,40.65c-8.78,23.37 -24.16,41.55 -44.38,55.86c-3.09,2.19 -5.68,4.84 -2.96,8.66c2.74,3.85 6.04,2.17 9.13,-0.02c19.27,-13.66 34.54,-30.8 44.6,-52.25c8.58,-18.3 13.31,-37.37 8.44,-57.66c-5.34,-22.26 -22.4,-32.85 -44.7,-28.14c-15.59,3.3 -28.85,11.31 -40.85,21.21c-33.38,27.56 -54.15,62.7 -61.53,105.5c-0.67,3.87 -2.7,4.65 -5.92,3.97c-4.25,-0.9 -5.22,-4.15 -5.4,-7.91c-0.66,-14.01 -2.17,-27.89 -7.01,-41.2c-4.37,-12.02 -10.84,-22.45 -22.01,-29.41c-6.16,-3.84 -12.66,-4.62 -18.97,-1.14c-5.34,2.94 -10.38,6.58 -15.15,10.4c-6.23,5 -11.88,10.72 -18.13,15.7c-7.66,6.12 -9.32,5.68 -16.74,-0.72c-1.41,-1.22 -5.08,-1.62 -6.44,-0.63c-1.41,1.01 -1.4,4.15 -1.73,6.4c-0.1,0.63 0.75,1.43 1.21,2.12c5.55,8.25 15.22,10.89 24.09,5.07c8.15,-5.36 15.23,-12.32 22.89,-18.45c4.27,-3.42 8.6,-6.81 13.17,-9.81c3.87,-2.54 7.8,-1.92 11.62,0.82c7.48,5.35 12.11,12.74 15.42,21.06c5.25,13.18 6.98,27.01 7.23,41.09c0.19,11.32 -0.64,12.58 -11.21,16.33c-29.67,10.51 -57.9,23.84 -83.08,42.97c-22.75,17.28 -41.89,37.58 -52.69,65.54z" fill="#FE705A" id="svg_1" opacity="1"/>
  <path d="m37.31,302.28c10.65,-27.59 29.79,-47.89 52.54,-65.17c25.18,-19.13 53.41,-32.46 83.08,-42.97c10.57,-3.75 11.4,-5.01 11.21,-16.33c-0.25,-14.08 -1.98,-27.91 -7.23,-41.09c-3.31,-8.32 -7.94,-15.71 -15.42,-21.06c-3.82,-2.74 -7.75,-3.36 -11.62,-0.82c-4.57,3 -8.9,6.39 -13.17,9.81c-7.66,6.13 -14.74,13.09 -22.89,18.45c-8.87,5.82 -18.54,3.18 -24.09,-5.07c-0.46,-0.69 -1.31,-1.49 -1.21,-2.12c0.33,-2.25 0.32,-5.39 1.73,-6.4c1.36,-0.99 5.03,-0.59 6.44,0.63c7.42,6.4 9.08,6.84 16.74,0.72c6.25,-4.98 11.9,-10.7 18.13,-15.7c4.77,-3.82 9.81,-7.46 15.15,-10.4c6.31,-3.48 12.81,-2.7 18.97,1.14c11.17,6.96 17.64,17.39 22.01,29.41c4.84,13.31 6.35,27.19 7.01,41.2c0.18,3.76 1.15,7.01 5.4,7.91c3.22,0.68 5.25,-0.1 5.92,-3.97c7.38,-42.8 28.15,-77.94 61.53,-105.5c12,-9.9 25.26,-17.91 40.85,-21.21c22.3,-4.71 39.36,5.88 44.7,28.14c4.87,20.29 0.14,39.36 -8.44,57.66c-10.06,21.45 -25.33,38.59 -44.6,52.25c-3.09,2.19 -6.39,3.87 -9.13,0.02c-2.72,-3.82 -0.13,-6.47 2.96,-8.66c20.22,-14.31 35.6,-32.49 44.38,-55.86c4.93,-13.12 7.37,-26.59 4.81,-40.65c-3.41,-18.71 -16.28,-27.17 -34.56,-22.15c-16.81,4.62 -30.72,14.45 -43.15,26.21c-24.62,23.29 -40.73,51.56 -47.88,84.79c-0.35,1.59 -0.47,3.23 -0.75,5.19c1.37,0 2.58,-0.38 3.22,0.07c1.86,1.3 4.65,2.77 4.9,4.49c0.24,1.64 -2.06,5.14 -3.54,5.32c-6.56,0.77 -6.54,4.79 -5.88,9.63c0.38,2.8 0.33,5.67 0.82,8.45c3.87,21.96 18.28,32.21 40.58,29.01c19.74,-2.84 36.61,-12.25 52.04,-24.05c12.14,-9.28 23.14,-20.04 34.83,-29.93c1.89,-1.6 4.91,-3.08 7.16,-2.78c3.68,0.48 3.69,4.13 3.57,7.23c-0.14,3.66 -0.63,7.35 -0.32,10.98c0.16,1.87 1.28,4.49 2.74,5.21c1.48,0.73 4.31,0.11 5.84,-0.95c5.61,-3.89 10.91,-8.21 16.35,-12.34c3.04,-2.32 6.35,-3.78 9.09,0.1c2.53,3.58 0.26,6.12 -2.62,8.37c-8.53,6.67 -16.88,13.58 -25.54,20.07c-6.18,4.64 -9.03,10.67 -10.02,18.18c-2.14,16.21 -5.21,32.3 -12.03,47.26c-2.91,6.41 -6.83,12.67 -11.53,17.88c-7.64,8.44 -19.56,9.27 -29.27,3.27c-7.31,-4.52 -10.74,-12.9 -7.34,-21.82c2.81,-7.36 6.31,-14.94 11.35,-20.87c10.98,-12.91 22.74,-25.22 34.97,-36.96c5.46,-5.24 6.29,-11.03 6.23,-17.54c-0.03,-3.68 -3.34,-5.17 -6.36,-2.97c-3.1,2.24 -5.87,4.93 -8.85,7.32c-17.25,13.85 -35.49,25.98 -57.02,32.25c-9.88,2.87 -19.96,3.83 -30.15,2.11c-18.23,-3.07 -30.37,-15.89 -33.93,-35.87c-0.9,-5.05 -1.2,-10.21 -1.77,-15.31c-5.55,-0.62 -9.36,2.1 -10.44,7.94c-1.77,9.66 -2.81,19.47 -4.97,29.03c-8.71,38.41 -23.68,73.9 -50.85,103.15c-17.91,19.29 -39.47,31.58 -66.7,31.2c-23.19,-0.32 -38.35,-15.01 -38.3,-38.23c0.02,-8.98 2.7,-17.95 4.32,-27.3m25.68,-23.76c-2.44,3.58 -5.03,7.06 -7.29,10.75c-7.89,12.85 -13.17,26.53 -12.48,41.93c0.62,13.98 10.61,24.78 23.87,25.74c9.56,0.69 18.95,-0.33 28.04,-3.59c21.34,-7.67 36.49,-22.87 49.01,-40.96c20.66,-29.86 32.2,-63.31 37.69,-99c0.97,-6.29 -3.45,-9.94 -9.5,-7.68c-7.79,2.9 -15.55,5.94 -23.12,9.38c-32.96,14.97 -63,33.98 -86.22,63.43m265.51,2.36c2.54,-8.78 5.3,-17.5 7.44,-26.38c0.5,-2.07 -0.41,-5.5 -1.95,-6.81c-2.59,-2.22 -5.27,-0.17 -7.25,2.11c-6.34,7.28 -12.97,14.33 -18.86,21.96c-3.29,4.28 -5.91,9.3 -7.82,14.37c-2.67,7.12 0.84,12.01 8.42,12.98c4.66,0.59 8.81,-0.75 11.56,-4.47c3.04,-4.12 5.45,-8.7 8.46,-13.76z" fill="#FFFCFB" id="svg_6" opacity="1"/>
  <path d="m63.2,278.24c23.01,-29.17 53.05,-48.18 86.01,-63.15c7.57,-3.44 15.33,-6.48 23.12,-9.38c6.05,-2.26 10.47,1.39 9.5,7.68c-5.49,35.69 -17.03,69.14 -37.69,99c-12.52,18.09 -27.67,33.29 -49.01,40.96c-9.09,3.26 -18.48,4.28 -28.04,3.59c-13.26,-0.96 -23.25,-11.76 -23.87,-25.74c-0.69,-15.4 4.59,-29.08 12.48,-41.93c2.26,-3.69 4.85,-7.17 7.5,-11.03z" fill="#FE715B" id="svg_7" opacity="1"/>
  <path d="m328.34,281.22c-2.85,4.72 -5.26,9.3 -8.3,13.42c-2.75,3.72 -6.9,5.06 -11.56,4.47c-7.58,-0.97 -11.09,-5.86 -8.42,-12.98c1.91,-5.07 4.53,-10.09 7.82,-14.37c5.89,-7.63 12.52,-14.68 18.86,-21.96c1.98,-2.28 4.66,-4.33 7.25,-2.11c1.54,1.31 2.45,4.74 1.95,6.81c-2.14,8.88 -4.9,17.6 -7.6,26.72z" fill="#FE725C" id="svg_8" opacity="1"/>
 </g>
</svg>
